icon-svg/mainsail.svg

<svg xmlns="http://www.w3.org/2000/svg" fill="#44739e" viewBox="0 0 24 24"><path d="m19.305 15.59-3.391 5.128 4.443.01L22 18.211a24.6 24.6 0 0 1-2.695-2.621M15.79 10.4 8.957 20.721l4.436.007 4.507-6.885a24.4 24.4 0 0 1-2.11-3.443m-2.301-7.128L2 20.713h4.437l8.319-12.67a24.67 24.67 0 0 1-1.267-4.771"/></svg>

<?xml version="1.0" encoding="UTF-8"?>
<svg width="24px" fill="#44739e" height="24px" viewBox="0 0 24 24" version="1.1" xmlns="http://www.w3.org/2000/svg" xmlns:xlink="http://www.w3.org/1999/xlink">
            <path d="m 19.305,15.59 -3.391,5.128 4.443,0.01 L 22,18.211 A 24.618,24.618 0 0 1 19.305,15.59 Z M 15.79,10.4 8.957,20.721 13.393,20.728 17.9,13.843 A 24.425,24.425 0 0 1 15.79,10.4 Z M 13.489,3.272 2,20.713 H 6.437 L 14.756,8.043 A 24.673,24.673 0 0 1 13.489,3.272 Z"/>

</svg>
